file/roche-bros.svg

<svg clip-rule="evenodd" fill-rule="evenodd" stroke-linejoin="round" stroke-miterlimit="1.41421" viewBox="0 0 560 400" xmlns="http://www.w3.org/2000/svg"><g fill-rule="nonzero" transform="matrix(1.13531 0 0 1.13531 52.9982 29.7709)"><path d="m86.7 119.2v3.1h1.8c1.3.1 2.7-.2 3.6.8.7.7.4 3.7.4 4.7v27.1c-.1 2.4-.1 3.4-2.8 3.5-1 .1-2.1.1-3.1.1v3.1h21.8v-3.1h-1.4c-.9-.1-1.9 0-2.9-.2-1.2-.1-1.5-.4-1.8-1.6-.1-.6-.1-1.3-.1-2v-13.5h1.8c.8 0 1.7 0 2.5.1 5.3.4 5.6 3.9 5.9 8.8l.2 3.5c.2 2.3.6 4.5 2.1 6.2 1.7 1.8 3.9 2.6 6.3 2.6 4.5 0 8.5-1.9 9.4-7 .3-1.1.3-2.3.3-3.5h-2.8c-.2 1.9-.5 6.6-3.3 5.4-.2-.2-.4-.5-.5-.7-.6-1.2-.8-2.5-1.1-3.8l-.9-3.7c-1.1-5-3.8-7.7-8.3-8.8v-.1c6-.5 11.9-3.3 11.9-10.5 0-3.1-1.6-6.4-4.1-8.1-2.9-1.9-5.8-2.3-9.1-2.3l-4.2-.1zm15.7 6.7c0-1.2.1-2.7 1.1-3.3 1.3-.5 2.7-.4 4.1-.4 5.1 0 7.8 1.7 7.8 7.4 0 6.3-3.1 8.2-8.6 8.4-1.5.1-2.9.2-4.4.1zm42.7 36.4c8.1 0 15.1-5.7 15.1-14.6 0-8.7-7-14.7-15.1-14.7-4.1 0-7.4 1.2-10.6 3.8-3 2.5-4.8 6.5-4.8 10.6.1 9.1 7 14.9 15.4 14.9m-.3-26.3c5.4 0 5.8 7.5 5.8 11.7 0 3.6-.3 11.7-5.2 11.7-5.9 0-6.1-7.1-6.1-11.6 0-3.8.4-11.8 5.5-11.8m43.7 16.3c-1.8 6.3-5.9 10.1-12.3 10.1-1.8 0-4.4-.4-6.2-.9-1.9-.6-3.6-1.7-5-3.2-2.9-3-4.1-6.1-4.1-10.3 0-9.1 7.4-14.9 15.7-14.9 4.7 0 11.3 1.9 11.3 7.8 0 3.1-2.1 5-4.9 5-2.9 0-5.4-2.7-4.3-5.7.1-.4.2-.7.4-.9.1-.2.4-.5.5-.7.2-.2.3-.4.4-.6.7-1.7-1.9-2.1-3-2.1-5.4 0-6.6 6.7-6.6 11.1 0 5 1.2 11.5 7.2 11.5 4.3 0 6.8-3.2 8.1-7.1zm-.3-30.3v-3l13.3-.6v20.1h.1c2.3-3.2 5.1-5.3 9.2-5.3 2.9 0 6 .9 7.7 3.6 1.7 2.6 1.5 5.6 1.5 8.7v10.4c0 .6 0 1.2.1 1.8.2.4.4.6.7.8.7.2 1.6.1 2.3.2h1.1v2.9h-16.7v-2.9l1.1-.1c.7 0 1.3.1 2-.1.3-.1.5-.5.7-.8.1-.8.1-1.5.1-2.3v-10.2c0-1.6.1-3.2-.6-4.7-.7-1.3-2-2.1-3.4-2.1-2.2 0-3.9 1.5-4.9 3.5-.8 1.8-.9 3.5-.9 5.4v8.5c0 .8-.1 1.6.2 2.3.1.1.2.2.3.3.6.3 1.3.2 1.9.2h1.4v2.9h-16.9v-2.9h1.4c.7 0 2.3.2 2.7-.6.3-.8.3-1.6.3-2.5v-29.8c-.2-3.5-.3-3.6-3.3-3.7zm64.4 26.2c.1-8.8-4.4-15.1-13.3-15.1-3.8 0-7.2 1.1-10.2 3.7-3 2.7-4.7 7-4.7 11.1 0 3.9 1.3 8 4.2 10.5s6.7 3.9 10.5 3.9c6.7 0 10.9-2.7 13.5-9.1l-2.5-1.1c-1.6 3.4-4.2 6.6-8.1 6.6-6 0-8.3-5-8.1-10.5zm-18.6-3c-.1-3.5 1.2-9.2 5.4-9.2 3.9 0 4.6 4 4.6 7.3 0 .8-.1 1.8-1.1 1.9-.6.1-1.1.1-1.7.1z" fill="#590652"/><path d="m8.8 124.7c20-6.3 31.4-9.4 51.8-14.2 3.2-.8 6.4.9 7.3 4.1l12 42c-10.1-2.7-16.6-3.4-26.8-1.5-5.6 1.1-8.9 1.8-14.2 4.1l-.7-2.3c6-9.2 11.3-13.5 19.9-20.4 4.7-3.8 9.5-7.5 7.9-13.3-2.7-9.6-15.5-7.8-25.1-5.1-15.1 4.3-22.2 11.1-34.1 21.4l-2.3-7.9c-.6-3.9 1.4-6 4.3-6.9m37.2 1c4.2-1.2 9.9-4 11.1.2 1 3.3-2.2 5.2-4.5 7.7-5.8 6.1-8.6 10.3-15.2 15.4l-2-6.8c-1-3.4-3.3-7.1-6.7-6.1-7.2 2.1-1.5 11.9-.6 19.2s-8.8 9.8-8.6 17.2c4 .6 6.6-.4 10.5-1.8.2 3.9 0 6.3 1.1 10.1l2 6.8-6.2 1.8c-4.2.8-5.9-1.2-6.7-4.2l-9.7-34.1c11.5-12.4 19-20.7 35.5-25.4m-5.8 42.2c4.7-1.3 7.3-2.1 12.1-2.9 8.5-1.3 13.6-1.5 22.1-.2 3.5.5 7.5.3 8.4 3.7.8 2.8-1.5 5.4-4.4 6.2l-35.7 10.3c-1.1-9.3-1.5-6.8-2.5-17.1m240.9-26.5c2.1 0 4.9.1 6.6 1.6 1.8 1.7 2.6 4.4 2.6 7 0 2.5-.7 5.1-2.7 6.7-2.1 1.6-5 1.7-7.6 1.7-.7 0-2.4 0-3-.8s-.4-1.9-.4-2.8v-13.4zm-.6 20c2 0 4-.1 6-.1.9 0 1.8-.1 2.7-.2 2.8-.4 5.4-.8 7.7-2.6 2.6-2 3.9-5 3.9-8.4 0-7.5-7.7-10.2-13.5-10.8v-.1c5.7-1.1 11.7-2.6 11.7-10 0-2.6-1.3-5.2-3.2-6.8-2.9-2.5-7.7-3.2-11.3-3.2h-23.6v3.1c1.4.1 2.9-.1 4.3.3.3.1.6.2.8.4s.3.4.4.6c.2.4.2 1 .2 1.5v30.2c0 1.1 0 .8-.2 1.8-.3 1.6-4.4 1.2-5.6 1.3v3.1h19.7zm-4-34.1c0-1.2-.2-2.7.4-3.9.6-1.3 3.2-1.2 4.4-1.2 1.8 0 3.8.3 5.3 1.5 1.7 1.3 2.3 3.9 2.3 5.9 0 3.3-.9 6-3.7 7.5-2.6 1.4-5.9.9-8.7 1.1zm43.7 34.1h-18.6v-2.9h2.2c.4 0 1.3 0 1.7-.3.1-.2.2-.4.3-.5.1-.8.1-1.5.1-2.2v-14.5c0-3.3-.4-3.6-3.6-3.7h-1.1v-3l12.4-.6v8h.1c1.4-4.3 4.1-8.5 9-8.5 3.4 0 6.2 2.1 6.2 5.9 0 2.6-1.9 4.9-4.5 4.9s-4.3-1.8-4.3-4.5c0-1.1.5-2.1 1.2-2.7l-.1-.1c-5.9 1.5-6.8 12.2-6.8 17.6 0 1 0 2 .1 3.1.1 1.3 1.4 1.2 2.3 1.2l3.2.1zm23.3.9c8.1 0 15.1-5.7 15.1-14.6 0-8.7-7-14.7-15.1-14.7-4.1 0-7.4 1.2-10.6 3.8-3 2.5-4.8 6.5-4.8 10.6 0 9.1 7 14.9 15.4 14.9m-.3-26.3c5.4 0 5.8 7.5 5.8 11.7 0 3.6-.3 11.7-5.2 11.7-5.9 0-6.1-7.1-6.1-11.6 0-3.8.4-11.8 5.5-11.8m19 25.4h-2.2l-.3-10h2.4c2 4.3 5.1 8 10 8 1.7 0 3.5-.4 4.6-1.9 1.4-3.8-1.7-4.7-4.4-5.3l-3.5-.8c-2.6-.6-4.3-1.1-6.3-3-1.8-1.7-2.4-3.6-2.4-6.1 0-6.3 5.4-9.3 10.8-9.3 2.2 0 4.8.8 6.7 1.9l2.1-1.3h2.2l.2 9.1h-2.4c-.2-.2-.2-.5-.4-.6-1.8-3.2-4.6-6.1-8.4-6.1-2.2 0-4.9.8-4.9 3.6 0 2.3 3.1 2.7 4.7 3.1l2.6.7c2.1.5 4.3 1.1 6.2 2.1 2.4 1.4 3.9 4 3.9 7 0 2.2-.6 4.5-2.1 6.2-1.7 1.9-2.8 2.4-5.1 3.1-1.1.3-2.9.6-4.1.6-2.3 0-5.9-.7-7.8-2zm28.1-10c2.8 0 5.2 2.5 5.2 5.5s-2.4 5.4-5.2 5.4-5.2-2.5-5.2-5.4c0-3 2.4-5.5 5.2-5.5" fill="#de2233"/></g></svg>

<?xml version="1.0" encoding="UTF-8" standalone="no"?>
<!DOCTYPE svg PUBLIC "-//W3C//DTD SVG 1.1//EN" "http://www.w3.org/Graphics/SVG/1.1/DTD/svg11.dtd">
<svg width="100%" height="100%" viewBox="0 0 560 400" version="1.1" xmlns="http://www.w3.org/2000/svg" xmlns:xlink="http://www.w3.org/1999/xlink" xml:space="preserve" xmlns:serif="http://www.serif.com/" style="fill-rule:evenodd;clip-rule:evenodd;stroke-linejoin:round;stroke-miterlimit:1.41421;">
    <g transform="matrix(1.13531,0,0,1.13531,52.9982,29.7709)">
        <path id="purple" d="M86.7,119.2L86.7,122.3L88.5,122.3C89.8,122.4 91.2,122.1 92.1,123.1C92.8,123.8 92.5,126.8 92.5,127.8L92.5,154.9C92.4,157.3 92.4,158.3 89.7,158.4C88.7,158.5 87.6,158.5 86.6,158.5L86.6,161.6L108.4,161.6L108.4,158.5L107,158.5C106.1,158.4 105.1,158.5 104.1,158.3C102.9,158.2 102.6,157.9 102.3,156.7C102.2,156.1 102.2,155.4 102.2,154.7L102.2,141.2L104,141.2C104.8,141.2 105.7,141.2 106.5,141.3C111.8,141.7 112.1,145.2 112.4,150.1L112.6,153.6C112.8,155.9 113.2,158.1 114.7,159.8C116.4,161.6 118.6,162.4 121,162.4C125.5,162.4 129.5,160.5 130.4,155.4C130.7,154.3 130.7,153.1 130.7,151.9L127.9,151.9C127.7,153.8 127.4,158.5 124.6,157.3C124.4,157.1 124.2,156.8 124.1,156.6C123.5,155.4 123.3,154.1 123,152.8L122.1,149.1C121,144.1 118.3,141.4 113.8,140.3L113.8,140.2C119.8,139.7 125.7,136.9 125.7,129.7C125.7,126.6 124.1,123.3 121.6,121.6C118.7,119.7 115.8,119.3 112.5,119.3L108.3,119.2L86.7,119.2ZM102.4,125.9C102.4,124.7 102.5,123.2 103.5,122.6C104.8,122.1 106.2,122.2 107.6,122.2C112.7,122.2 115.4,123.9 115.4,129.6C115.4,135.9 112.3,137.8 106.8,138C105.3,138.1 103.9,138.2 102.4,138.1L102.4,125.9ZM145.1,162.3C153.2,162.3 160.2,156.6 160.2,147.7C160.2,139 153.2,133 145.1,133C141,133 137.7,134.2 134.5,136.8C131.5,139.3 129.7,143.3 129.7,147.4C129.8,156.5 136.7,162.3 145.1,162.3M144.8,136C150.2,136 150.6,143.5 150.6,147.7C150.6,151.3 150.3,159.4 145.4,159.4C139.5,159.4 139.3,152.3 139.3,147.8C139.3,144 139.7,136 144.8,136M188.5,152.3C186.7,158.6 182.6,162.4 176.2,162.4C174.4,162.4 171.8,162 170,161.5C168.1,160.9 166.4,159.8 165,158.3C162.1,155.3 160.9,152.2 160.9,148C160.9,138.9 168.3,133.1 176.6,133.1C181.3,133.1 187.9,135 187.9,140.9C187.9,144 185.8,145.9 183,145.9C180.1,145.9 177.6,143.2 178.7,140.2C178.8,139.8 178.9,139.5 179.1,139.3C179.2,139.1 179.5,138.8 179.6,138.6C179.8,138.4 179.9,138.2 180,138C180.7,136.3 178.1,135.9 177,135.9C171.6,135.9 170.4,142.6 170.4,147C170.4,152 171.6,158.5 177.6,158.5C181.9,158.5 184.4,155.3 185.7,151.4L188.5,152.3ZM188.2,122L188.2,119L201.5,118.4L201.5,138.5L201.6,138.5C203.9,135.3 206.7,133.2 210.8,133.2C213.7,133.2 216.8,134.1 218.5,136.8C220.2,139.4 220,142.4 220,145.5L220,155.9C220,156.5 220,157.1 220.1,157.7C220.3,158.1 220.5,158.3 220.8,158.5C221.5,158.7 222.4,158.6 223.1,158.7L224.2,158.7L224.2,161.6L207.5,161.6L207.5,158.7L208.6,158.6C209.3,158.6 209.9,158.7 210.6,158.5C210.9,158.4 211.1,158 211.3,157.7C211.4,156.9 211.4,156.2 211.4,155.4L211.4,145.2C211.4,143.6 211.5,142 210.8,140.5C210.1,139.2 208.8,138.4 207.4,138.4C205.2,138.4 203.5,139.9 202.5,141.9C201.7,143.7 201.6,145.4 201.6,147.3L201.6,155.8C201.6,156.6 201.5,157.4 201.8,158.1C201.9,158.2 202,158.3 202.1,158.4C202.7,158.7 203.4,158.6 204,158.6L205.4,158.6L205.4,161.5L188.5,161.5L188.5,158.6L189.9,158.6C190.6,158.6 192.2,158.8 192.6,158C192.9,157.2 192.9,156.4 192.9,155.5L192.9,125.7C192.7,122.2 192.6,122.1 189.6,122L188.2,122ZM252.6,148.2C252.7,139.4 248.2,133.1 239.3,133.1C235.5,133.1 232.1,134.2 229.1,136.8C226.1,139.5 224.4,143.8 224.4,147.9C224.4,151.8 225.7,155.9 228.6,158.4C231.5,160.9 235.3,162.3 239.1,162.3C245.8,162.3 250,159.6 252.6,153.2L250.1,152.1C248.5,155.5 245.9,158.7 242,158.7C236,158.7 233.7,153.7 233.9,148.2L252.6,148.2ZM234,145.2C233.9,141.7 235.2,136 239.4,136C243.3,136 244,140 244,143.3C244,144.1 243.9,145.1 242.9,145.2C242.3,145.3 241.8,145.3 241.2,145.3L234,145.2Z" style="fill:rgb(89,6,82);fill-rule:nonzero;"/>
        <path id="red" d="M8.8,124.7C28.8,118.4 40.2,115.3 60.6,110.5C63.8,109.7 67,111.4 67.9,114.6L79.9,156.6C69.8,153.9 63.3,153.2 53.1,155.1C47.5,156.2 44.2,156.9 38.9,159.2L38.2,156.9C44.2,147.7 49.5,143.4 58.1,136.5C62.8,132.7 67.6,129 66,123.2C63.3,113.6 50.5,115.4 40.9,118.1C25.8,122.4 18.7,129.2 6.8,139.5L4.5,131.6C3.9,127.7 5.9,125.6 8.8,124.7M46,125.7C50.2,124.5 55.9,121.7 57.1,125.9C58.1,129.2 54.9,131.1 52.6,133.6C46.8,139.7 44,143.9 37.4,149L35.4,142.2C34.4,138.8 32.1,135.1 28.7,136.1C21.5,138.2 27.2,148 28.1,155.3C29,162.6 19.3,165.1 19.5,172.5C23.5,173.1 26.1,172.1 30,170.7C30.2,174.6 30,177 31.1,180.8L33.1,187.6L26.9,189.4C22.7,190.2 21,188.2 20.2,185.2L10.5,151.1C22,138.7 29.5,130.4 46,125.7M40.2,167.9C44.9,166.6 47.5,165.8 52.3,165C60.8,163.7 65.9,163.5 74.4,164.8C77.9,165.3 81.9,165.1 82.8,168.5C83.6,171.3 81.3,173.9 78.4,174.7L42.7,185C41.6,175.7 41.2,178.2 40.2,167.9M281.1,141.4C283.2,141.4 286,141.5 287.7,143C289.5,144.7 290.3,147.4 290.3,150C290.3,152.5 289.6,155.1 287.6,156.7C285.5,158.3 282.6,158.4 280,158.4C279.3,158.4 277.6,158.4 277,157.6C276.4,156.8 276.6,155.7 276.6,154.8L276.6,141.4L281.1,141.4ZM280.5,161.4C282.5,161.4 284.5,161.3 286.5,161.3C287.4,161.3 288.3,161.2 289.2,161.1C292,160.7 294.6,160.3 296.9,158.5C299.5,156.5 300.8,153.5 300.8,150.1C300.8,142.6 293.1,139.9 287.3,139.3L287.3,139.2C293,138.1 299,136.6 299,129.2C299,126.6 297.7,124 295.8,122.4C292.9,119.9 288.1,119.2 284.5,119.2L260.9,119.2L260.9,122.3C262.3,122.4 263.8,122.2 265.2,122.6C265.5,122.7 265.8,122.8 266,123C266.2,123.2 266.3,123.4 266.4,123.6C266.6,124 266.6,124.6 266.6,125.1L266.6,155.3C266.6,156.4 266.6,156.1 266.4,157.1C266.1,158.7 262,158.3 260.8,158.4L260.8,161.5L280.5,161.5L280.5,161.4ZM276.5,127.3C276.5,126.1 276.3,124.6 276.9,123.4C277.5,122.1 280.1,122.2 281.3,122.2C283.1,122.2 285.1,122.5 286.6,123.7C288.3,125 288.9,127.6 288.9,129.6C288.9,132.9 288,135.6 285.2,137.1C282.6,138.5 279.3,138 276.5,138.2L276.5,127.3ZM320.2,161.4L301.6,161.4L301.6,158.5L303.8,158.5C304.2,158.5 305.1,158.5 305.5,158.2C305.6,158 305.7,157.8 305.8,157.7C305.9,156.9 305.9,156.2 305.9,155.5L305.9,141C305.9,137.7 305.5,137.4 302.3,137.3L301.2,137.3L301.2,134.3L313.6,133.7L313.6,141.7L313.7,141.7C315.1,137.4 317.8,133.2 322.7,133.2C326.1,133.2 328.9,135.3 328.9,139.1C328.9,141.7 327,144 324.4,144C321.8,144 320.1,142.2 320.1,139.5C320.1,138.4 320.6,137.4 321.3,136.8L321.2,136.7C315.3,138.2 314.4,148.9 314.4,154.3C314.4,155.3 314.4,156.3 314.5,157.4C314.6,158.7 315.9,158.6 316.8,158.6L320,158.7L320.2,161.4ZM343.5,162.3C351.6,162.3 358.6,156.6 358.6,147.7C358.6,139 351.6,133 343.5,133C339.4,133 336.1,134.2 332.9,136.8C329.9,139.3 328.1,143.3 328.1,147.4C328.1,156.5 335.1,162.3 343.5,162.3M343.2,136C348.6,136 349,143.5 349,147.7C349,151.3 348.7,159.4 343.8,159.4C337.9,159.4 337.7,152.3 337.7,147.8C337.7,144 338.1,136 343.2,136M362.2,161.4L360,161.4L359.7,151.4L362.1,151.4C364.1,155.7 367.2,159.4 372.1,159.4C373.8,159.4 375.6,159 376.7,157.5C378.1,153.7 375,152.8 372.3,152.2L368.8,151.4C366.2,150.8 364.5,150.3 362.5,148.4C360.7,146.7 360.1,144.8 360.1,142.3C360.1,136 365.5,133 370.9,133C373.1,133 375.7,133.8 377.6,134.9L379.7,133.6L381.9,133.6L382.1,142.7L379.7,142.7C379.5,142.5 379.5,142.2 379.3,142.1C377.5,138.9 374.7,136 370.9,136C368.7,136 366,136.8 366,139.6C366,141.9 369.1,142.3 370.7,142.7L373.3,143.4C375.4,143.9 377.6,144.5 379.5,145.5C381.9,146.9 383.4,149.5 383.4,152.5C383.4,154.7 382.8,157 381.3,158.7C379.6,160.6 378.5,161.1 376.2,161.8C375.1,162.1 373.3,162.4 372.1,162.4C369.8,162.4 366.2,161.7 364.3,160.4L362.2,161.4ZM390.3,151.4C393.1,151.4 395.5,153.9 395.5,156.9C395.5,159.9 393.1,162.3 390.3,162.3C387.5,162.3 385.1,159.8 385.1,156.9C385.1,153.9 387.5,151.4 390.3,151.4" style="fill:rgb(222,34,51);fill-rule:nonzero;"/>
    </g>
</svg>
